!!!OTL: WIE D WOLKEN AM HIMMEL
!!!ARE: Europa, Mitteleuropa, Oesterreich, Steiermark
!!!SCT: E0636
!!!YEM: Copyright 1995, estate of Helmut Schaffrath.
**kern
*ICvox
*Ivox
*M3/4
*k[f#c#g#d#]
*E:
{4e
=1
8g#
8B
4e
4g#
=2
8b
8cc#
4b}
{4b
=3
8g#
8b
4ee
4g#
=4
2b}
{4b
=5
4a
8d#
8f#
8b
8a
=6
8g#
8b
4e}
{4g#
=7
8f#
8d#
8B
8a
8g#
8f#
=8
2e}
==
!!!AGN: Liebes - Lied
!!!ONB: ESAC (Essen Associative Code) Database: ERK2
!!!AMT: simple triple
!!!AIN: vox
!!!EED: Helmut Schaffrath
!!!EEV: 1.0
*-
